Printex-remake/img/icons/preloader.svg

<svg width="64" height="64" viewBox="0 0 64 64" fill="none" xmlns="http://www.w3.org/2000/svg">
<path d="M0 10C0 4.47715 4.47715 0 10 0L54 0C59.5228 0 64 4.47715 64 10V54C64 59.5228 59.5228 64 54 64H12C5.37258 64 0 58.6274 0 52L0 10Z" fill="black"/>
<path d="M14 11H34.7857C43.3571 11 49 16.0728 49 24.2043C49 32.3357 43.5 37.2593 34.7857 37.2593H20.2143V53H14V11ZM42.7143 24.1297C42.7143 19.1314 40 16.8188 34.4286 16.8188H20.1429V31.4405H34.4286C40 31.4405 42.7143 28.9787 42.7143 24.1297Z" fill="white"/>
</svg>

<svg width="64" height="64" fill="none" xmlns="http://www.w3.org/2000/svg"><path d="M0 10C0 4.477 4.477 0 10 0h44c5.523 0 10 4.477 10 10v44c0 5.523-4.477 10-10 10H12C5.373 64 0 58.627 0 52V10z" fill="#000"/><path d="M14 11h20.786C43.357 11 49 16.073 49 24.204c0 8.132-5.5 13.055-14.214 13.055H20.214V53H14V11zm28.714 13.13c0-4.999-2.714-7.311-8.285-7.311H20.143V31.44h14.286c5.571 0 8.285-2.462 8.285-7.311z" fill="#fff"/></svg>
